X:6
T:Kitty's Wedding
R:hornpipe
D:Noel Hill & Tony Linnane
Z:id:hn-hornpipe-6
M:C|
K:D
fe|d2Bd A2FA|BAFA D2 (3FED|B,DA,D DFBF|AFDF E2fe|
d2Bd A2FA|BAFA D2 (3FED|B,DA,D DFBF|AFEF D2:|
|:fg|afed bafd|Adfd edBd|DFAd FAde|fdgf e2fg|
afed bafd|Adfd edBd|DFAd FAdf|eABc d2:|

